X: 09071
T: MARCY'S HORNPIPE
C: Bob McQuillen 28 Feb 92
B: Bob's Note Book 9 #71
R: hornpipe, reel
Z: 2018 John Chambers <jc:trillian.mit.edu>
M: C
L: 1/8
K: D
AB \
| d2df edBd | A2dB AFED | F2FD G2GD | FAFD E2AB |
| d2df edBd | A2dB AFED | FDFA dfag | f2d2 d2  :|
|: fg \
| a2fa gfeg | f2df edBd | AFAB A2dB | Adfd e2fg |
| a2fa gfeg | fded B2dB | Adfa gecd | e2d2 d2  :|
%%begintext align
%% Marcy [Rawitscher?]
%% came down to the lower 48 from Alaska, just
%% so she could gladden our hearts when she shows
%% up on the local dance scene. We are sure happy
%% she's here, and I wrote this tune just for you, Marcy -
%%endtext

%%sep 1 1 500

%%sep 1 1 500

